static/img/kroki/f0a0dce41a396219e1d7caf257785e44.svg

<?xml version="1.0" encoding="us-ascii" standalone="no"?><svg xmlns="http://www.w3.org/2000/svg" xmlns:xlink="http://www.w3.org/1999/xlink" contentStyleType="text/css" height="252px" preserveAspectRatio="none" style="width:403px;height:252px;" version="1.1" viewBox="0 0 403 252" width="403px" zoomAndPan="magnify"><defs/><g><!--class gcp_disk_type--><g id="elem_gcp_disk_type"><rect codeLine="22" fill="#3D176E" height="39.7891" id="gcp_disk_type" rx="2.5" ry="2.5" style="stroke:#000D19;stroke-width:0.5;" width="158" x="7" y="206.58"/><ellipse cx="22" cy="226.4745" fill="#ADD1B2" rx="11" ry="11" style="stroke:#181818;stroke-width:1.0;"/><path d="M24.9688,232.1152 Q24.3906,232.412 23.75,232.5527 Q23.1094,232.7089 22.4063,232.7089 Q19.9063,232.7089 18.5781,231.0683 Q17.2656,229.412 17.2656,226.287 Q17.2656,223.162 18.5781,221.5058 Q19.9063,219.8495 22.4063,219.8495 Q23.1094,219.8495 23.75,220.0058 Q24.4063,220.162 24.9688,220.4589 L24.9688,223.1777 Q24.3438,222.5995 23.75,222.3339 Q23.1563,222.0527 22.5313,222.0527 Q21.1875,222.0527 20.5,223.1308 Q19.8125,224.1933 19.8125,226.287 Q19.8125,228.3808 20.5,229.4589 Q21.1875,230.5214 22.5313,230.5214 Q23.1563,230.5214 23.75,230.2558 Q24.3438,229.9745 24.9688,229.3964 L24.9688,232.1152 Z " fill="#000000"/><text fill="#D9B8FF" font-family="Helvetica" font-size="17" lengthAdjust="spacing" textLength="116" x="41" y="232.3598">gcp_disk_type</text></g><!--class gcp_machine_type--><g id="elem_gcp_machine_type"><rect codeLine="24" fill="#3D176E" height="39.7891" id="gcp_machine_type" rx="2.5" ry="2.5" style="stroke:#000D19;stroke-width:0.5;" width="197" x="199.5" y="206.58"/><ellipse cx="214.5" cy="226.4745" fill="#ADD1B2" rx="11" ry="11" style="stroke:#181818;stroke-width:1.0;"/><path d="M217.4688,232.1152 Q216.8906,232.412 216.25,232.5527 Q215.6094,232.7089 214.9063,232.7089 Q212.4063,232.7089 211.0781,231.0683 Q209.7656,229.412 209.7656,226.287 Q209.7656,223.162 211.0781,221.5058 Q212.4063,219.8495 214.9063,219.8495 Q215.6094,219.8495 216.25,220.0058 Q216.9063,220.162 217.4688,220.4589 L217.4688,223.1777 Q216.8438,222.5995 216.25,222.3339 Q215.6563,222.0527 215.0313,222.0527 Q213.6875,222.0527 213,223.1308 Q212.3125,224.1933 212.3125,226.287 Q212.3125,228.3808 213,229.4589 Q213.6875,230.5214 215.0313,230.5214 Q215.6563,230.5214 216.25,230.2558 Q216.8438,229.9745 217.4688,229.3964 L217.4688,232.1152 Z " fill="#000000"/><text fill="#D9B8FF" font-family="Helvetica" font-size="17" lengthAdjust="spacing" textLength="155" x="233.5" y="232.3598">gcp_machine_type</text></g><!--class gcp_service--><g id="elem_gcp_service"><rect codeLine="26" fill="#3D176E" height="39.7891" id="gcp_service" rx="2.5" ry="2.5" style="stroke:#000D19;stroke-width:0.5;" width="137" x="123.5" y="7"/><ellipse cx="138.5" cy="26.8945" fill="#ADD1B2" rx="11" ry="11" style="stroke:#181818;stroke-width:1.0;"/><path d="M141.4688,32.5352 Q140.8906,32.832 140.25,32.9727 Q139.6094,33.1289 138.9063,33.1289 Q136.4063,33.1289 135.0781,31.4883 Q133.7656,29.832 133.7656,26.707 Q133.7656,23.582 135.0781,21.9258 Q136.4063,20.2695 138.9063,20.2695 Q139.6094,20.2695 140.25,20.4258 Q140.9063,20.582 141.4688,20.8789 L141.4688,23.5977 Q140.8438,23.0195 140.25,22.7539 Q139.6563,22.4727 139.0313,22.4727 Q137.6875,22.4727 137,23.5508 Q136.3125,24.6133 136.3125,26.707 Q136.3125,28.8008 137,29.8789 Q137.6875,30.9414 139.0313,30.9414 Q139.6563,30.9414 140.25,30.6758 Q140.8438,30.3945 141.4688,29.8164 L141.4688,32.5352 Z " fill="#000000"/><text fill="#D9B8FF" font-family="Helvetica" font-size="17" lengthAdjust="spacing" textLength="95" x="157.5" y="32.7798">gcp_service</text></g><!--class gcp_sku--><g id="elem_gcp_sku"><rect codeLine="28" fill="#3D176E" height="39.7891" id="gcp_sku" rx="2.5" ry="2.5" style="stroke:#000D19;stroke-width:0.5;" width="108" x="138" y="106.79"/><ellipse cx="153" cy="126.6845" fill="#ADD1B2" rx="11" ry="11" style="stroke:#181818;stroke-width:1.0;"/><path d="M155.9688,132.3252 Q155.3906,132.622 154.75,132.7627 Q154.1094,132.9189 153.4063,132.9189 Q150.9063,132.9189 149.5781,131.2783 Q148.2656,129.622 148.2656,126.497 Q148.2656,123.372 149.5781,121.7158 Q150.9063,120.0595 153.4063,120.0595 Q154.1094,120.0595 154.75,120.2158 Q155.4063,120.372 155.9688,120.6689 L155.9688,123.3877 Q155.3438,122.8095 154.75,122.5439 Q154.1563,122.2627 153.5313,122.2627 Q152.1875,122.2627 151.5,123.3408 Q150.8125,124.4033 150.8125,126.497 Q150.8125,128.5908 151.5,129.6689 Q152.1875,130.7314 153.5313,130.7314 Q154.1563,130.7314 154.75,130.4658 Q155.3438,130.1845 155.9688,129.6064 L155.9688,132.3252 Z " fill="#000000"/><text fill="#D9B8FF" font-family="Helvetica" font-size="17" lengthAdjust="spacing" textLength="66" x="172" y="132.5698">gcp_sku</text></g><!--link gcp_service to gcp_sku--><g id="link_gcp_service_gcp_sku"><path codeLine="30" d="M192,47.22 C192,64.36 192,83.27 192,100.41 " fill="none" id="gcp_service-to-gcp_sku" style="stroke:#1A83AF;stroke-width:2.0;"/><polygon fill="#1A83AF" points="192,106.41,196,97.41,192,101.41,188,97.41,192,106.41" style="stroke:#1A83AF;stroke-width:2.0;"/></g><!--link gcp_sku to gcp_disk_type--><g id="link_gcp_sku_gcp_disk_type"><path codeLine="31" d="M171.06,147.01 C152.47,164.15 129.879,184.9905 111.309,202.1305 " fill="none" id="gcp_sku-to-gcp_disk_type" style="stroke:#1A83AF;stroke-width:2.0;"/><polygon fill="#1A83AF" points="106.9,206.2,116.2265,203.0351,110.5742,202.8088,110.8005,197.1564,106.9,206.2" style="stroke:#1A83AF;stroke-width:2.0;"/></g><!--link gcp_sku to gcp_machine_type--><g id="link_gcp_sku_gcp_machine_type"><path codeLine="32" d="M212.94,147.01 C231.53,164.15 254.121,184.9905 272.691,202.1305 " fill="none" id="gcp_sku-to-gcp_machine_type" style="stroke:#1A83AF;stroke-width:2.0;"/><polygon fill="#1A83AF" points="277.1,206.2,273.1995,197.1564,273.4258,202.8088,267.7735,203.0351,277.1,206.2" style="stroke:#1A83AF;stroke-width:2.0;"/></g><!--SRC=[XT11Qy8m50VmUpz5e6V1hcosbq4jo7QHCNSRGsBoqeQsINc9YXlxxbjrbQonUdt_7td_br9o8D2qza0QQ3Q09Z2LL2r5sf0CKUzpNMiaeH1KnBDXkD3AtWHBsW1vWde7LZ8w56-bP9K2OyYT4yqfgmhKMyLFprkaoln6eAoZyfeQarcBShEru9JXwIOHOYY7ZuOnZsOFu36D7F2FJATJ7gL3SdFLrRlFOYK_WKJkfosr1Q-cj-AehhRiX5FIExJFHpk-KCwbAiYzCtizTK85-6- -AYdN-quBMXjtZR60eEsXXTox2jA4Yzb5_3o6MVTpf63jcajJhJjBle9lPzvGLae5bo83k9FCcrRRuyGLa_Smof8uMtnC7diKzDWBprN6YTlg1m00]--></g></svg>

<svg xmlns="http://www.w3.org/2000/svg" width="403" height="252" viewBox="0 0 403 252"><rect width="158" height="39.789" x="7" y="206.58" fill="#3D176E" rx="2.5" ry="2.5" style="stroke:#000d19;stroke-width:.5"/><circle cx="22" cy="226.475" r="11" fill="#ADD1B2" style="stroke:#181818;stroke-width:1"/><path d="M24.969 232.115q-.578.297-1.219.438-.64.156-1.344.156-2.5 0-3.828-1.64-1.312-1.657-1.312-4.782t1.312-4.781q1.328-1.656 3.828-1.656.703 0 1.344.156.656.156 1.219.453v2.719q-.625-.578-1.219-.844-.594-.281-1.219-.281-1.343 0-2.031 1.078-.687 1.062-.687 3.156t.687 3.172q.688 1.062 2.031 1.062.625 0 1.219-.265.594-.281 1.219-.86z"/><text x="41" y="232.36" fill="#D9B8FF" font-family="Helvetica" font-size="17" textLength="116">gcp_disk_type</text><rect width="197" height="39.789" x="199.5" y="206.58" fill="#3D176E" rx="2.5" ry="2.5" style="stroke:#000d19;stroke-width:.5"/><circle cx="214.5" cy="226.475" r="11" fill="#ADD1B2" style="stroke:#181818;stroke-width:1"/><path d="M217.469 232.115q-.578.297-1.219.438-.64.156-1.344.156-2.5 0-3.828-1.64-1.312-1.657-1.312-4.782t1.312-4.781q1.328-1.656 3.828-1.656.703 0 1.344.156.656.156 1.219.453v2.719q-.625-.578-1.219-.844-.594-.281-1.219-.281-1.344 0-2.031 1.078-.687 1.062-.687 3.156t.687 3.172q.688 1.062 2.031 1.062.625 0 1.219-.265.594-.281 1.219-.86z"/><text x="233.5" y="232.36" fill="#D9B8FF" font-family="Helvetica" font-size="17" textLength="155">gcp_machine_type</text><rect width="137" height="39.789" x="123.5" y="7" fill="#3D176E" rx="2.5" ry="2.5" style="stroke:#000d19;stroke-width:.5"/><circle cx="138.5" cy="26.895" r="11" fill="#ADD1B2" style="stroke:#181818;stroke-width:1"/><path d="M141.469 32.535q-.578.297-1.219.438-.64.156-1.344.156-2.5 0-3.828-1.64-1.312-1.657-1.312-4.782t1.312-4.781q1.328-1.656 3.828-1.656.703 0 1.344.156.656.156 1.219.453v2.719q-.625-.578-1.219-.844-.594-.281-1.219-.281-1.344 0-2.031 1.078-.687 1.062-.687 3.156t.687 3.172q.688 1.062 2.031 1.062.625 0 1.219-.265.594-.281 1.219-.86z"/><text x="157.5" y="32.78" fill="#D9B8FF" font-family="Helvetica" font-size="17" textLength="95">gcp_service</text><rect width="108" height="39.789" x="138" y="106.79" fill="#3D176E" rx="2.5" ry="2.5" style="stroke:#000d19;stroke-width:.5"/><circle cx="153" cy="126.684" r="11" fill="#ADD1B2" style="stroke:#181818;stroke-width:1"/><path d="M155.969 132.325q-.578.297-1.219.438-.64.156-1.344.156-2.5 0-3.828-1.64-1.312-1.657-1.312-4.782t1.312-4.781q1.328-1.656 3.828-1.656.703 0 1.344.156.656.156 1.219.453v2.719q-.625-.579-1.219-.844-.594-.281-1.219-.281-1.344 0-2.031 1.078-.687 1.062-.687 3.156t.687 3.172q.688 1.062 2.031 1.062.625 0 1.219-.265.594-.281 1.219-.86z"/><text x="172" y="132.57" fill="#D9B8FF" font-family="Helvetica" font-size="17" textLength="66">gcp_sku</text><path fill="none" d="M192 47.22v53.19" style="stroke:#1a83af;stroke-width:2"/><path fill="#1A83AF" d="m192 106.41 4-9-4 4-4-4z" style="stroke:#1a83af;stroke-width:2"/><path fill="none" d="M171.06 147.01c-18.59 17.14-41.181 37.98-59.751 55.12" style="stroke:#1a83af;stroke-width:2"/><path fill="#1A83AF" d="m106.9 206.2 9.326-3.165-5.652-.226.227-5.653z" style="stroke:#1a83af;stroke-width:2"/><path fill="none" d="M212.94 147.01c18.59 17.14 41.181 37.98 59.751 55.12" style="stroke:#1a83af;stroke-width:2"/><path fill="#1A83AF" d="m277.1 206.2-3.9-9.044.226 5.653-5.652.226z" style="stroke:#1a83af;stroke-width:2"/></svg>
